tools/download-figma-icons/icons/action/twitter.svg

<svg width="24" height="24" viewBox="0 0 24 24" fill="none" xmlns="http://www.w3.org/2000/svg">
<path d="M18.2637 2.25H21.5737L14.3061 10.5249L22.7969 21.75H16.1338L10.917 14.9286L4.9447 21.75H1.63474L9.334 12.8994L1.203 2.25H8.0316L12.7447 8.48137L18.2637 2.25ZM17.1052 19.8072H18.9401L7.06739 4.12085H5.09581L17.1052 19.8072Z" fill="black"/>
</svg>

<svg xmlns="http://www.w3.org/2000/svg" width="24" height="24" fill="none" viewBox="0 0 24 24"><path fill="currentColor" d="M18.264 2.25h3.31l-7.268 8.275 8.49 11.225h-6.662l-5.217-6.821-5.972 6.821h-3.31l7.699-8.85L1.203 2.25h6.829l4.713 6.231zm-1.159 17.557h1.835L7.067 4.121H5.096z"/></svg>
